X:120
T:Gelding of the Devil. (p)1657.PLFD.120
M:6/4
L:1/4
Q:3/4=100
S:Playford, Dancing Master,3rd Ed.,1657
O:England
H:1657.
Z:Chris Partington.
K:F
G|D2 D G2 G|A2 F B2 B|c>dB A2 G|^F>EF G2:|
|:G|^F>EF  G>FG|A>GA B2 B|c>dB A2 G|^F>EF G3:|
